Plugins/Compositing/OpenColorIO/Content/OCIO/luts/UE_PQtoFilmicTC.cube
TITLE "Generated by Foundry::LUT"
LUT_3D_SIZE 65
0.000000 0.000000 0.000000
0.000026 0.000000 0.000000
0.000039 0.000000 0.000000
0.000310 0.000000 0.000000
0.000581 0.000000 0.000000
0.001809 0.000000 0.000000
0.003152 0.000000 0.000000
0.007016 0.000000 0.000000
0.011460 0.000000 0.000000
0.021408 0.000000 0.000000
0.033295 0.000000 0.000000
0.053125 0.000000 0.000000
0.072040 0.000000 0.000000
0.091424 0.000000 0.000000
0.109802 0.000000 0.000000
0.132030 0.000000 0.000000
0.155551 0.000000 0.000000
0.183244 0.000000 0.000000
0.213706 0.000000 0.000000
0.247846 0.000000 0.000026
0.286326 0.000000 0.000078
0.325689 0.000000 0.000168
0.369598 0.000000 0.000323
0.413904 0.000000 0.000556
0.465771 0.000000 0.000982
0.515721 0.000000 0.001563
0.573579 0.000013 0.002674
0.627277 0.000013 0.004070
0.688220 0.000013 0.006912
0.743023 0.000013 0.010103
0.799239 0.000013 0.016538
0.850436 0.001693 0.023217
0.894395 0.052267 0.036693
0.935675 0.087244 0.049409
0.968209 0.164803 0.068798
0.999356 0.216774 0.084884
1.022418 0.280261 0.107985
1.044200 0.332206 0.128002
1.059454 0.392162 0.155484
1.073249 0.445467 0.180310
1.081414 0.502048 0.212974
1.088347 0.554102 0.243491
1.091028 0.605662 0.281592
1.092174 0.654188 0.318439
1.091410 0.696912 0.361528
1.089880 0.735678 0.404418
1.087196 0.769986 0.450614
1.083731 0.800104 0.497032
1.080252 0.827154 0.543555
1.075980 0.850436 0.589472
1.071684 0.871108 0.632778
1.067365 0.889150 0.674010
1.063024 0.905255 0.711205
1.059056 0.919313 0.744607
1.055068 0.932150 0.775112
1.051060 0.942905 0.802691
1.047840 0.952813 0.827704
1.044200 0.961005 0.849371
1.041358 0.968433 0.870077
1.038505 0.974455 0.887142
1.035642 0.980649 0.903784
1.034002 0.985261 0.917391
1.031946 0.989844 0.930264
1.030297 0.993316 0.940581
1.028645 0.996558 0.951209
0.000000 0.000013 0.000000
0.000013 0.000013 0.000000
0.000039 0.000013 0.000000
0.000284 0.000013 0.000000
0.000556 0.000013 0.000000
0.001757 0.000000 0.000000
0.003114 0.000000 0.000000
0.006964 0.000000 0.000000
0.011434 0.000000 0.000000
0.021396 0.000000 0.000000
0.033269 0.000000 0.000000
0.053125 0.000000 0.000000
0.072040 0.000000 0.000000
0.091424 0.000000 0.000000
0.109802 0.000000 0.000000
0.132030 0.000000 0.000000
0.155551 0.000000 0.000000
0.183297 0.000000 0.000000
0.213795 0.000000 0.000000
0.248000 0.000000 0.000026
0.286456 0.000000 0.000078
0.325801 0.000000 0.000168
0.369694 0.000000 0.000323
0.414071 0.000000 0.000556
0.465915 0.000000 0.000969
0.515848 0.000000 0.001550
0.573579 0.000013 0.002674
0.627277 0.000013 0.004070
0.688220 0.000013 0.006912
0.743023 0.000013 0.010103
0.799239 0.000013 0.016538
0.850436 0.001705 0.023217
0.894395 0.052922 0.036693
0.935675 0.088069 0.049454
0.968209 0.165225 0.068798
0.999356 0.217044 0.084884
1.022418 0.280528 0.107985
1.044200 0.332424 0.128002
1.059454 0.392340 0.155484
1.073249 0.445620 0.180310
1.081414 0.502180 0.212974
1.088347 0.554334 0.243491
1.091028 0.605868 0.281592
1.092174 0.654188 0.318439
1.091410 0.696912 0.361528
1.089880 0.735678 0.404418
1.087196 0.769986 0.450614
1.083731 0.800104 0.497032
1.080252 0.827154 0.543555
1.075980 0.850436 0.589472
1.071684 0.871366 0.632778
1.067365 0.889150 0.674010
1.063024 0.905500 0.711205
1.059056 0.919313 0.744607
1.055068 0.932150 0.775112
1.051060 0.942905 0.802691
1.047840 0.952813 0.827704
1.044200 0.961005 0.849371
1.041358 0.968433 0.870077
1.038505 0.974455 0.887142
1.035642 0.980649 0.903784
1.034002 0.985261 0.917391
1.031946 0.989844 0.930264
1.030297 0.993316 0.940581
1.028645 0.996558 0.951209
0.000000 0.000026 0.000000
0.000013 0.000026 0.000000
0.000039 0.000026 0.000000
0.000271 0.000026 0.000000
0.000517 0.000013 0.000000
0.001718 0.000013 0.000000
0.003075 0.000000 0.000000
0.006925 0.000000 0.000000
0.011395 0.000000 0.000000
0.021370 0.000000 0.000000
0.033269 0.000000 0.000000
0.053125 0.000000 0.000000
0.072040 0.000000 0.000000
0.091424 0.000000 0.000000
0.109802 0.000000 0.000000
0.132105 0.000000 0.000000
0.155614 0.000000 0.000000
0.183406 0.000000 0.000000
0.213977 0.000000 0.000000
0.248078 0.000000 0.000026
0.286586 0.000000 0.000078
0.325912 0.000000 0.000168
0.369790 0.000000 0.000310
0.414071 0.000000 0.000543
0.465915 0.000000 0.000969
0.515848 0.000000 0.001550
0.573579 0.000013 0.002674
0.627277 0.000013 0.004057
0.688220 0.000013 0.006899
0.743023 0.000013 0.010103
0.799239 0.000013 0.016538
0.850436 0.001731 0.023230
0.894395 0.053530 0.036693
0.935675 0.088895 0.049454
0.968209 0.165764 0.068869
0.999356 0.217402 0.084944
1.022418 0.280794 0.107985
1.044200 0.332642 0.128038
1.059454 0.392520 0.155484
1.073249 0.445620 0.180310
1.081414 0.502312 0.212974
1.087963 0.554334 0.243570
1.090645 0.605868 0.281592
1.092174 0.654375 0.318439
1.091410 0.697085 0.361528
1.089880 0.736000 0.404418
1.087196 0.769986 0.450614
1.083731 0.800104 0.497032
1.080252 0.827154 0.543555
1.075980 0.850436 0.589472
1.071684 0.871366 0.632778
1.067365 0.889150 0.674010
1.063024 0.905500 0.711373
1.059056 0.919313 0.744607
1.055068 0.932150 0.775112
1.051060 0.942905 0.802691
1.047840 0.952813 0.827704
1.044200 0.961005 0.849371
1.041358 0.968433 0.870077
1.038505 0.974455 0.887142
1.035642 0.980649 0.903784
1.034002 0.985261 0.917391
1.031946 0.989844 0.930264
1.030297 0.993316 0.940581
1.028645 0.996558 0.951209
0.000000 0.000207 0.000000
0.000013 0.000220 0.000000
0.000013 0.000220 0.000000
0.000245 0.000220 0.000000
0.000478 0.000220 0.000000
0.001563 0.000207 0.000000
0.002791 0.000194 0.000000
0.006563 0.000129 0.000000
0.010969 0.000052 0.000000
0.020943 0.000026 0.000000
0.032868 0.000000 0.000000
0.052837 0.000000 0.000000
0.071878 0.000000 0.000000
0.091375 0.000000 0.000000
0.109850 0.000000 0.000000
0.132179 0.000000 0.000000
0.155869 0.000000 0.000000
0.183727 0.000000 0.000000
0.214251 0.000000 0.000000
0.248461 0.000000 0.000026
0.286978 0.000000 0.000065
0.326247 0.000000 0.000155
0.370173 0.000000 0.000310
0.414404 0.000000 0.000530
0.466203 0.000000 0.000956
0.516101 0.000000 0.001537
0.573800 0.000013 0.002662
0.627476 0.000013 0.004057
0.688396 0.000013 0.006899
0.743340 0.000013 0.010091
0.799239 0.000013 0.016538
0.850701 0.001822 0.023230
0.894395 0.055686 0.036719
0.935675 0.091800 0.049499
0.968209 0.167495 0.068904
0.999356 0.218824 0.085003
1.022418 0.281857 0.108027
1.044200 0.333512 0.128079
1.059454 0.393409 0.155551
1.073249 0.446381 0.180364
1.081414 0.502835 0.213067
1.087963 0.554797 0.243648
1.090645 0.606282 0.281725
1.091792 0.654562 0.318554
1.091410 0.697257 0.361626
1.089880 0.736000 0.404418
1.087196 0.770289 0.450614
1.083731 0.800680 0.497164
1.080252 0.827154 0.543555
1.075980 0.850436 0.589472
1.071684 0.871366 0.632778
1.067365 0.889401 0.674010
1.063024 0.905500 0.711373
1.059056 0.919553 0.744607
1.055068 0.932150 0.775112
1.051060 0.942905 0.802691
1.047840 0.952813 0.827704
1.044200 0.961005 0.849371
1.041358 0.968433 0.870077
1.038505 0.974455 0.887142
1.035642 0.980649 0.903784
1.034002 0.985261 0.917391
1.031946 0.989844 0.930264
1.030297 0.993316 0.940581
1.028645 0.996558 0.951209
0.000000 0.000401 0.000000
0.000000 0.000413 0.000000
0.000000 0.000413 0.000000
0.000220 0.000426 0.000000
0.000439 0.000426 0.000000
0.001408 0.000426 0.000000
0.002481 0.000413 0.000000
0.006189 0.000271 0.000000
0.010517 0.000116 0.000000
0.020517 0.000052 0.000000
0.032481 0.000013 0.000000
0.052547 0.000000 0.000000
0.071682 0.000000 0.000000
0.091263 0.000000 0.000000
0.109850 0.000000 0.000000
0.132332 0.000000 0.000000
0.156125 0.000000 0.000000
0.184050 0.000000 0.000000
0.214703 0.000000 0.000000
0.248770 0.000000 0.000013
0.287237 0.000000 0.000065
0.326581 0.000000 0.000142
0.370556 0.000000 0.000297
0.414572 0.000000 0.000530
0.466491 0.000000 0.000943
0.516354 0.000000 0.001525
0.574022 0.000013 0.002649
0.627673 0.000013 0.004044
0.688571 0.000013 0.006886
0.743657 0.000013 0.010078
0.799528 0.000013 0.016538
0.850701 0.001912 0.023243
0.894395 0.057936 0.036770
0.935675 0.094782 0.049521
0.968209 0.169264 0.068931
0.999356 0.220326 0.085055
1.022418 0.283050 0.108075
1.044200 0.334489 0.128155
1.059454 0.394119 0.155614
1.073249 0.446989 0.180418
1.081414 0.503359 0.213159
1.087963 0.555259 0.243727
1.090645 0.606694 0.281725
1.091792 0.654937 0.318668
1.091410 0.697429 0.361725
1.089880 0.736321 0.404590
1.087196 0.770289 0.450764
1.083731 0.800680 0.497164
1.080252 0.827154 0.543555
1.075980 0.850701 0.589472
1.071684 0.871366 0.632778
1.067365 0.889401 0.674010
1.063024 0.905500 0.711373
1.059056 0.919553 0.744607
1.055068 0.932386 0.775112
1.051060 0.942905 0.802691
1.047840 0.952813 0.827704
1.044200 0.961005 0.849371
1.041358 0.968433 0.870077
1.038505 0.974455 0.887142
1.035642 0.980649 0.903784
1.034002 0.985261 0.917391
1.031946 0.989844 0.930264
1.030297 0.993316 0.940581
1.028645 0.996558 0.951209
0.000000 0.001266 0.000000
0.000000 0.001279 0.000000
0.000000 0.001279 0.000000
0.000207 0.001292 0.000000
0.000413 0.001318 0.000000
0.001370 0.001331 0.000000
0.002429 0.001344 0.000000
0.005814 0.001266 0.000000
0.009755 0.001176 0.000000
0.019432 0.001047 0.000000
0.031124 0.000904 0.000000
0.051268 0.000581 0.000000
0.070529 0.000181 0.000000
0.090569 0.000026 0.000000
0.109666 0.000013 0.000000
0.132559 0.000000 0.000000
0.156634 0.000000 0.000000
0.184692 0.000000 0.000000
0.215425 0.000000 0.000000
0.249610 0.000000 0.000013
0.288014 0.000000 0.000039
0.327360 0.000000 0.000116
0.371128 0.000000 0.000258
0.415404 0.000000 0.000491
0.467211 0.000000 0.000917
0.516860 0.000000 0.001499
0.574464 0.000013 0.002610
0.628067 0.000013 0.004005
0.688746 0.000013 0.006861
0.743657 0.000013 0.010065
0.799528 0.000013 0.016538
0.850701 0.002119 0.023243
0.894644 0.062370 0.036796
0.935675 0.100650 0.049566
0.968209 0.172971 0.069001
0.999141 0.223296 0.085115
1.022418 0.285413 0.108213
1.043795 0.336537 0.128273
1.059056 0.395888 0.155739
1.072858 0.448504 0.180583
1.081027 0.504534 0.213249
1.087963 0.556181 0.243884
1.090645 0.607518 0.281990
1.091792 0.655497 0.318783
1.091028 0.697945 0.362020
1.089497 0.736642 0.404762
1.087196 0.770591 0.450914
1.083731 0.800968 0.497297
1.080252 0.827429 0.543792
1.075980 0.850701 0.589686
1.071684 0.871623 0.632778
1.067365 0.889401 0.674190
1.063024 0.905500 0.711373
1.059056 0.919553 0.744923
1.055068 0.932386 0.775412
1.051060 0.942905 0.802691
1.047840 0.952813 0.827704
1.044200 0.961005 0.849371
1.041358 0.968433 0.870077
1.038505 0.974455 0.887142
1.035642 0.980649 0.903784
1.034002 0.985261 0.917391
1.031946 0.989844 0.930264
1.030297 0.993316 0.940581
1.028645 0.996558 0.951209
0.000000 0.002235 0.000000
0.000000 0.002235 0.000000
0.000000 0.002248 0.000000
0.000194 0.002274 0.000000
0.000388 0.002300 0.000000
0.001344 0.002339 0.000000
0.002416 0.002377 0.000000
0.005439 0.002377 0.000000
0.008954 0.002377 0.000000
0.018256 0.002183 0.000000
0.029600 0.001912 0.000000
0.049756 0.001253 0.000000
0.069274 0.000388 0.000000
0.089870 0.000052 0.000000
0.109441 0.000013 0.000000
0.132781 0.000000 0.000000
0.157079 0.000000 0.000000
0.185384 0.000000 0.000000
0.216148 0.000000 0.000000
0.250372 0.000000 0.000000
0.288789 0.000000 0.000013
0.328138 0.000000 0.000078
0.371892 0.000000 0.000233
0.416068 0.000000 0.000452
0.467784 0.000000 0.000879
0.517367 0.000000 0.001460
0.574906 0.000013 0.002571
0.628658 0.000013 0.003979
0.689096 0.000013 0.006835
0.743975 0.000013 0.010052
0.799816 0.000013 0.016525
0.850701 0.002326 0.023256
0.894644 0.066889 0.036835
0.935675 0.106601 0.049622
0.967985 0.176932 0.069072
0.998926 0.226477 0.085226
1.022000 0.287885 0.108303
1.043795 0.338786 0.128390
1.059056 0.397648 0.155869
1.072858 0.450011 0.180748
1.081027 0.505835 0.213431
1.087580 0.557332 0.244041
1.090263 0.608546 0.282122
1.091410 0.656243 0.318898
1.091028 0.698462 0.362118
1.089497 0.737283 0.404935
1.087196 0.770894 0.451064
1.083731 0.801255 0.497430
1.080252 0.827429 0.543792
1.075980 0.850967 0.589686
1.071684 0.871623 0.632973
1.067365 0.889401 0.674190
1.063024 0.905500 0.711541
1.059056 0.919553 0.744923
1.055068 0.932386 0.775412
1.051060 0.942905 0.802978
1.047840 0.952813 0.827980
1.044200 0.961005 0.849638
1.041358 0.968433 0.870077
1.038505 0.974455 0.887142
1.035642 0.980649 0.903784
1.034002 0.985261 0.917391
1.031946 0.989844 0.930264
1.030297 0.993316 0.940581
1.028645 0.996558 0.951209
-0.000000 0.005142 0.000000
-0.000000 0.005155 0.000000
0.000000 0.005168 0.000000
0.000116 0.005207 0.000000
0.000233 0.005246 0.000000
0.001266 0.005310 0.000000
0.002416 0.005388 0.000000
0.005478 0.005452 0.000000
0.008979 0.005517 0.000000
0.017726 0.005465 0.000000
0.028321 0.005349 0.000000
0.047927 0.004819 0.000000
0.067204 0.004083 0.000000
0.088565 0.003566 0.000000
0.109031 0.003191 0.000000
0.133008 0.002687 0.000000
0.157961 0.002080 0.000000
0.186499 0.001370 0.000000
0.217580 0.000491 0.000000
0.251813 0.000000 0.000000
0.290202 0.000000 0.000013
0.329463 0.000000 0.000052
0.373222 0.000000 0.000168
0.417228 0.000000 0.000362
0.468786 0.000000 0.000788
0.518501 0.000000 0.001370
0.575790 0.000013 0.002494
0.629642 0.000013 0.003915
0.689796 0.000013 0.006783
0.744607 0.000013 0.010000
0.800104 0.000013 0.016512
0.850967 0.002700 0.023256
0.894644 0.074094 0.036887
0.935441 0.116130 0.049711
0.967985 0.183297 0.069204
0.998711 0.231697 0.085337
1.022000 0.292118 0.108530
1.043389 0.342282 0.128583
1.058658 0.400617 0.156125
1.072467 0.452561 0.181020
1.080639 0.508039 0.213706
1.087196 0.559167 0.244354
1.089880 0.609777 0.282519
1.091410 0.657546 0.319241
1.090645 0.699664 0.362413
1.089114 0.737924 0.405106
1.086427 0.771499 0.451514
1.083345 0.801542 0.497695
1.079865 0.827704 0.544029
1.075590 0.850967 0.589900
1.071684 0.871880 0.632973
1.066972 0.889652 0.674371
1.063024 0.905745 0.711541
1.058658 0.919553 0.744923
1.055068 0.932386 0.775412
1.051060 0.942905 0.802978
1.047840 0.952813 0.827980
1.044200 0.961005 0.849638
1.041358 0.968433 0.870077
1.038505 0.974900 0.887393
1.035642 0.980649 0.903784
1.034002 0.985261 0.917391
1.031946 0.989844 0.930264
1.030297 0.993316 0.940813
1.028645 0.996558 0.951209
-0.000000 0.008527 0.000000
-0.000000 0.008540 0.000000
0.000000 0.008566 0.000000
0.000026 0.008605 0.000000
0.000052 0.008656 0.000000
0.001163 0.008760 0.000000
0.002429 0.008863 0.000000
0.005594 0.008992 0.000000
0.009225 0.009122 0.000000
0.017377 0.009251 0.000000
0.027106 0.009380 0.000000
0.045957 0.009083 0.000000
0.064909 0.008605 0.000000
0.087077 0.007933 0.000000
0.108578 0.007145 0.000000
0.133307 0.006034 0.000000
0.158781 0.004677 0.000000
0.187762 0.003023 0.000000
0.219002 0.001111 0.000000
0.253322 0.000000 0.000000
0.291737 0.000000 0.000000
0.330894 0.000000 0.000026
0.374641 0.000000 0.000090
0.418712 0.000000 0.000271
0.470214 0.000000 0.000698
0.519634 0.000000 0.001279
0.577110 0.000013 0.002416
0.630429 0.000013 0.003824
0.690319 0.000013 0.006705
0.744923 0.000013 0.009948
0.800680 0.000013 0.016486
0.851233 0.003088 0.023269
0.894644 0.081425 0.036938
0.935441 0.125917 0.049800
0.967761 0.190054 0.069335
0.998496 0.237273 0.085507
1.021584 0.296531 0.108715
1.042984 0.346153 0.128857
1.058260 0.403731 0.156379
1.072075 0.455390 0.181348
1.080252 0.510359 0.214069
1.086427 0.561222 0.244746
1.089880 0.611413 0.282784
1.091028 0.658660 0.319813
1.090645 0.700520 0.362806
1.089114 0.738564 0.405449
1.086427 0.772102 0.451663
1.083345 0.802117 0.497960
1.079865 0.828255 0.544265
1.075590 0.851233 0.590114
1.071684 0.871880 0.633169
1.066972 0.889902 0.674551
1.063024 0.905989 0.711709
1.058658 0.919792 0.744923
1.054668 0.932622 0.775412
1.051060 0.943137 0.802978
1.047436 0.953042 0.827980
1.044200 0.961231 0.849638
1.041358 0.968657 0.870077
1.038505 0.974900 0.887393
1.035642 0.980649 0.903784
1.034002 0.985261 0.917391
1.031946 0.989844 0.930264
1.030297 0.993316 0.940813
1.028645 0.996558 0.951438
-0.000000 0.016589 -0.000000
-0.000000 0.016615 -0.000000
-0.000000 0.016628 -0.000000
-0.000000 0.016680 -0.000000
0.000000 0.016744 -0.000000
0.000879 0.016886 -0.000000
0.001899 0.017003 -0.000000
0.005349 0.017197 -0.000000
0.009380 0.017403 -0.000000
0.017649 0.017636 -0.000000
0.027352 0.017881 -0.000000
0.045663 0.017830 -0.000000
0.064065 0.017662 -0.000000
0.086573 0.017184 -0.000000
0.108668 0.016525 0.000000
0.134129 0.015530 0.000000
0.160277 0.014225 0.000000
0.189745 0.012584 0.000000
0.221292 0.010543 0.000000
0.255785 0.008824 0.000000
0.293892 0.007571 0.000000
0.333077 0.005930 0.000013
0.376709 0.003721 0.000052
0.420682 0.001809 0.000181
0.471920 0.000788 0.000543
0.521389 0.000000 0.001085
0.578427 0.000013 0.002222
0.631604 0.000013 0.003656
0.691540 0.000013 0.006576
0.745871 0.000943 0.009845
0.801255 0.011434 0.016434
0.851498 0.024638 0.023256
0.894644 0.097327 0.037016
0.935207 0.139672 0.049923
0.967537 0.199924 0.069572
0.998281 0.245602 0.085788
1.021166 0.303313 0.109031
1.042577 0.352014 0.129202
1.057862 0.408687 0.156825
1.071293 0.459519 0.181783
1.079865 0.513814 0.214613
1.086042 0.564174 0.245290
1.089114 0.613857 0.283314
1.090645 0.660512 0.320269
1.090263 0.702060 0.363297
1.088731 0.739842 0.405962
1.086042 0.773007 0.452262
1.082960 0.802691 0.498357
1.079477 0.828806 0.544740
1.075200 0.851764 0.590754
1.071293 0.872137 0.633754
1.066972 0.889902 0.674730
1.063024 0.905989 0.711876
1.058658 0.920032 0.745240
1.054668 0.932622 0.776012
1.050659 0.943137 0.802978
1.047436 0.953042 0.827980
1.044200 0.961231 0.849638
1.041358 0.968657 0.870077
1.038505 0.974900 0.887393
1.035642 0.980869 0.903784
1.034002 0.985261 0.917391
1.031946 0.989844 0.930264
1.030297 0.993316 0.940813
1.028645 0.996558 0.951438
-0.000000 0.026266 -0.000000
-0.000000 0.026266 -0.000000
-0.000000 0.026292 -0.000000
-0.000000 0.026396 -0.000000
0.000000 0.026460 -0.000000
0.000543 0.026615 -0.000000
0.001163 0.026783 -0.000000
0.004948 0.027029 -0.000000
0.009509 0.027274 -0.000000
0.018140 0.027597 -0.000000
0.028166 0.027946 -0.000000
0.046004 0.028140 -0.000000
0.063775 0.028295 -0.000000
0.086464 0.028140 -0.000000
0.108990 0.027791 0.000000
0.135091 0.027132 0.000000
0.161944 0.026202 0.000000
0.191910 0.024858 0.000000
0.223900 0.023036 0.000000
0.258369 0.020737 0.000000
0.296406 0.017726 0.000000
0.335461 0.013954 0.000000
0.379137 0.008682 0.000013
0.422965 0.004264 0.000103
0.474041 0.001860 0.000375
0.523261 0.000000 0.000853
0.579959 0.000013 0.002016
0.632973 0.000013 0.003463
0.692758 0.000013 0.006408
0.746818 0.002339 0.009703
0.801830 0.026809 0.016357
0.851764 0.052429 0.023243
0.894644 0.113837 0.037093
0.935207 0.153616 0.050090
0.967313 0.210400 0.069773
0.997850 0.254519 0.086075
1.020331 0.310630 0.109394
1.041764 0.358357 0.129626
1.057065 0.413904 0.157270
1.070900 0.464182 0.182270
1.079089 0.517745 0.215156
1.085658 0.567555 0.245836
1.088731 0.616491 0.283972
1.089880 0.662725 0.320838
1.089497 0.703765 0.363982
1.088347 0.741116 0.406474
1.085658 0.773910 0.452711
1.082960 0.803551 0.499020
1.079477 0.829355 0.545212
1.075200 0.852029 0.591181
1.071293 0.872652 0.634143
1.066972 0.890152 0.675090
1.062628 0.906478 0.712044
1.058658 0.920032 0.745240
1.054668 0.932857 0.776012
1.050659 0.943137 0.802978
1.047436 0.953042 0.827980
1.044200 0.961231 0.849638
1.041358 0.968657 0.870077
1.038505 0.974900 0.887393
1.035642 0.980869 0.903784
1.034002 0.985261 0.917391
1.031946 0.989844 0.930264
1.030297 0.993316 0.940813
1.028645 0.996558 0.951438
-0.000000 0.044642 -0.000000
-0.000000 0.044666 -0.000000
-0.000000 0.044690 -0.000000
-0.000000 0.044761 -0.000000
0.000000 0.044869 -0.000000
0.000284 0.045059 -0.000000
0.000620 0.045237 -0.000000
0.004199 0.045533 -0.000000
0.008553 0.045840 -0.000000
0.017700 0.046204 -0.000000
0.028540 0.046624 -0.000000
0.046868 0.047041 -0.000000
0.064807 0.047445 -0.000000
0.087737 0.047641 -0.000000
0.110475 0.047732 -0.000000
0.137072 0.047514 -0.000000
0.164503 0.047088 -0.000000
0.194956 0.046356 -0.000000
0.227497 0.045190 -0.000000
0.262080 0.043338 -0.000000
0.300129 0.040491 0.000000
0.338999 0.036589 0.000000
0.382468 0.031202 0.000000
0.426202 0.026370 0.000052
0.476991 0.022985 0.000220
0.525991 0.020233 0.000594
0.582573 0.019587 0.001693
0.635311 0.019755 0.003101
0.694319 0.023605 0.006098
0.748077 0.030556 0.009445
0.802404 0.061529 0.016189
0.852029 0.085507 0.023178
0.894893 0.135536 0.037184
0.934972 0.171704 0.050267
0.966864 0.224418 0.070104
0.996989 0.266584 0.086464
1.019912 0.320497 0.109891
1.041358 0.366997 0.130205
1.056267 0.421172 0.157961
1.069724 0.470499 0.183028
1.077924 0.523012 0.215877
1.084888 0.571803 0.246690
1.087963 0.620113 0.284890
1.089114 0.665661 0.321635
1.089114 0.706143 0.364762
1.087580 0.743023 0.407328
1.085273 0.775412 0.453457
1.082573 0.804409 0.499680
1.079089 0.830454 0.545921
1.075200 0.853089 0.591607
1.071293 0.872908 0.634533
1.066578 0.890903 0.675269
1.062628 0.906723 0.712212
1.058658 0.920272 0.745556
1.054668 0.932857 0.776312
1.050659 0.943369 0.802978
1.047436 0.953042 0.827980
1.044200 0.961231 0.849904
1.041358 0.968657 0.870334
1.038505 0.974900 0.887393
1.035642 0.980869 0.903784
1.034002 0.985261 0.917391
1.031946 0.989844 0.930264
1.030297 0.993316 0.940813
1.028645 0.996558 0.951438
-0.000000 0.063278 -0.000000
-0.000000 0.063306 -0.000000
-0.000000 0.063306 -0.000000
-0.000000 0.063382 -0.000000
0.000000 0.063485 -0.000000
0.000078 0.063635 -0.000000
0.000168 0.063850 -0.000000
0.003269 0.064130 -0.000000
0.007080 0.064418 -0.000000
0.016874 0.064835 -0.000000
0.028708 0.065296 -0.000000
0.047973 0.065754 -0.000000
0.066482 0.066273 -0.000000
0.089657 0.066717 -0.000000
0.112521 0.067069 -0.000000
0.139456 0.067267 -0.000000
0.167433 0.067303 -0.000000
0.198447 0.067168 -0.000000
0.231446 0.066790 -0.000000
0.266229 0.065891 -0.000000
0.304041 0.064344 0.000000
0.342913 0.062265 0.000000
0.386308 0.059121 0.000000
0.429886 0.055768 0.000013
0.480335 0.052386 0.000065
0.529072 0.049331 0.000323
0.585173 0.047950 0.001318
0.637831 0.048189 0.002649
0.696222 0.056313 0.005711
0.749334 0.066028 0.009134
0.803264 0.092382 0.015982
0.852559 0.114362 0.023075
0.894893 0.157079 0.037287
0.934737 0.190261 0.050521
0.966415 0.239286 0.070468
0.996558 0.279593 0.086968
1.019075 0.331441 0.110475
1.040544 0.376522 0.130851
1.055468 0.429408 0.158715
1.068939 0.477412 0.183889
1.077147 0.528949 0.216865
1.083731 0.577110 0.247616
1.087196 0.624305 0.285805
1.088347 0.668762 0.322767
1.088347 0.708680 0.365735
1.087196 0.744923 0.408517
1.084888 0.776911 0.454350
1.082187 0.805552 0.500339
1.078313 0.831276 0.546392
1.074810 0.853618 0.592032
1.070900 0.873679 0.634922
1.066578 0.891154 0.675629
1.062628 0.906967 0.712547
1.058658 0.920511 0.745871
1.054668 0.933092 0.776312
1.050659 0.943601 0.803264
1.047436 0.953271 0.828255
1.044200 0.961457 0.849904
1.041358 0.968881 0.870334
1.038505 0.975122 0.887393
1.035642 0.980869 0.903784
1.034002 0.985261 0.917391
1.031946 0.989844 0.930500
1.030297 0.993316 0.940813
1.028645 0.996774 0.951438
-0.000000 0.088185 -0.000000
-0.000000 0.088185 -0.000000
-0.000000 0.088235 -0.000000
-0.000000 0.088293 -0.000000
-0.000000 0.088343 -0.000000
-0.000000 0.088565 -0.000000
0.000000 0.088730 -0.000000
0.002028 0.089002 -0.000000
0.004561 0.089273 -0.000000
0.014509 0.089707 -0.000000
0.027003 0.090089 -0.000000
0.047709 0.090569 -0.000000
0.067446 0.091158 -0.000000
0.091424 0.091688 -0.000000
0.114794 0.092271 -0.000000
0.142431 0.092693 -0.000000
0.170953 0.093113 -0.000000
0.202550 0.093380 -0.000000
0.236218 0.093483 -0.000000
0.271348 0.093167 -0.000000
0.309089 0.092271 -0.000000
0.347912 0.091109 -0.000000
0.391090 0.089494 0.000000
0.434633 0.087903 0.000000
0.484748 0.086236 0.000000
0.533105 0.084884 0.000155
0.588830 0.085115 0.000827
0.640723 0.086632 0.001899
0.698462 0.094829 0.005065
0.751213 0.104119 0.008592
0.804409 0.126000 0.015607
0.853618 0.145547 0.022881
0.895141 0.182487 0.037339
0.934502 0.212701 0.050808
0.965965 0.257928 0.070961
0.995695 0.295906 0.087578
1.017819 0.345319 0.111283
