Plugins/Compositing/OpenColorIO/Content/OCIO/luts/UE_PQtoFilmicTC.cube
TITLE "Generated by Foundry::LUT"
LUT_3D_SIZE 5
0.000000 0.000000 0.000000
0.155551 0.000000 0.000000
0.894395 0.052267 0.036693
1.080252 0.827154 0.543555
1.028645 0.996558 0.951209
-0.000000 0.175696 -0.000000
0.180966 0.180912 -0.000000
0.895390 0.267360 0.037455
1.076369 0.837817 0.551081
1.027817 0.996774 0.951438
0.481028 0.881586 0.262298
0.536858 0.880571 0.266443
0.865676 0.876495 0.330894
1.039321 0.928371 0.658846
1.026989 0.999141 0.953957
0.954185 1.010233 0.886890
0.954870 1.010233 0.887142
0.965066 1.009385 0.889150
1.002999 1.007263 0.908187
1.021166 1.008537 0.971785
1.010233 1.016560 1.002571
1.010233 1.016560 1.002571
1.010656 1.016560 1.002571
1.011925 1.016560 1.002571
1.015719 1.016139 1.004707
-0.000000 0.000000 0.168382
0.159469 0.000000 0.172685
0.895390 0.062446 0.220767
1.078313 0.824667 0.595847
1.028645 0.996558 0.952355
-0.000000 0.178159 0.180037
0.179431 0.180037 0.180145
0.893150 0.274857 0.229776
1.074420 0.835100 0.602135
1.027817 0.996558 0.952584
0.483925 0.878536 0.379044
0.539022 0.877516 0.382007
0.864376 0.873422 0.428609
1.038097 0.926236 0.689970
1.026989 0.998926 0.954641
0.954185 1.009810 0.890903
0.954870 1.009810 0.891154
0.964841 1.009385 0.893150
1.002999 1.006837 0.910864
1.021166 1.008537 0.972008
1.010233 1.016560 1.002571
1.010233 1.016560 1.002571
1.010656 1.016560 1.002571
1.011925 1.016560 1.002999
1.015719 1.016139 1.004707
0.014651 0.066618 0.857838
0.245058 0.074376 0.857838
0.921947 0.228091 0.858100
1.061439 0.817707 0.873166
1.027403 0.995479 0.965965
0.020905 0.273280 0.856785
0.255785 0.277844 0.856785
0.912077 0.371033 0.857049
1.058658 0.827429 0.873679
1.027403 0.995479 0.965965
0.551781 0.857838 0.852029
0.591820 0.857311 0.852294
0.855731 0.855467 0.855204
1.026989 0.914256 0.881586
1.026160 0.997850 0.967313
0.953271 1.005560 0.933327
0.953957 1.005560 0.933563
0.963715 1.005134 0.934268
1.001287 1.003427 0.942673
1.020331 1.008113 0.978885
1.010233 1.016560 1.003427
1.010233 1.016560 1.003427
1.010656 1.016560 1.003427
1.011925 1.016560 1.003427
1.015719 1.016139 1.005560
0.796638 0.850701 1.006837
0.806978 0.850701 1.006837
0.907211 0.854147 1.005560
1.026989 0.905500 1.002571
1.024499 0.994182 1.000858
0.799239 0.857311 1.005986
0.808969 0.857311 1.005986
0.906723 0.860199 1.005560
1.026160 0.908187 1.002143
1.024083 0.994182 1.000858
0.840252 0.921947 1.002143
0.845632 0.921708 1.002143
0.909405 0.921230 1.002143
1.014457 0.939649 1.000429
1.023251 0.996126 1.000858
0.961683 1.000000 0.998926
0.962135 1.000000 0.998926
0.969105 0.999785 0.998926
0.999356 0.999356 0.999141
1.018657 1.005986 1.002143
1.010233 1.016139 1.008113
1.010233 1.016139 1.008113
1.010233 1.016139 1.008113
1.011503 1.016139 1.008113
1.015719 1.015719 1.008962
0.991365 0.998496 1.016139
0.991365 0.998496 1.016139
0.993750 0.998496 1.016139
1.005134 0.998711 1.016139
1.018657 1.004707 1.015719
0.991365 0.998496 1.016139
0.991582 0.998496 1.016139
0.993750 0.998496 1.016139
1.005134 0.998711 1.016139
1.018657 1.004707 1.015719
0.992016 0.999785 1.016139
0.992016 0.999785 1.016139
0.993966 0.999785 1.016139
1.005134 1.000000 1.016139
1.018657 1.005134 1.015719
0.997420 1.006837 1.015719
0.997420 1.006837 1.015719
0.998496 1.006837 1.015719
1.005134 1.006837 1.015719
1.016980 1.008962 1.015298
1.011503 1.015298 1.014878
1.011503 1.015298 1.014878
1.011503 1.015298 1.014878
1.011925 1.015298 1.014878
1.015298 1.014878 1.014878
