Plugins/Compositing/OpenColorIO/Content/OCIO/luts/UE_PQtoFilmicTC.cube
TITLE "Generated by Foundry::LUT"
LUT_3D_SIZE 9
0.000000 0.000000 0.000000
0.011460 0.000000 0.000000
0.155551 0.000000 0.000000
0.465771 0.000000 0.000982
0.894395 0.052267 0.036693
1.081414 0.502048 0.212974
1.080252 0.827154 0.543555
1.047840 0.952813 0.827704
1.028645 0.996558 0.951209
-0.000000 0.008527 0.000000
0.009225 0.009122 0.000000
0.158781 0.004677 0.000000
0.470214 0.000000 0.000698
0.894644 0.081425 0.036938
1.080252 0.510359 0.214069
1.079865 0.828255 0.544265
1.047436 0.953042 0.827980
1.028645 0.996558 0.951438
-0.000000 0.175696 -0.000000
0.000000 0.176540 -0.000000
0.180966 0.180912 -0.000000
0.502835 0.183727 0.000000
0.895390 0.267360 0.037455
1.070116 0.567781 0.223381
1.076369 0.837817 0.551081
1.047032 0.953957 0.828806
1.027817 0.996774 0.951438
0.000000 0.544976 -0.000000
0.000000 0.545212 -0.000000
0.176764 0.546864 -0.000000
0.551314 0.552710 0.000000
0.886890 0.591394 0.074127
1.037279 0.721849 0.273213
1.064210 0.869819 0.578866
1.044605 0.958511 0.833737
1.027817 0.997204 0.952126
0.481028 0.881586 0.262298
0.488026 0.881333 0.262730
0.536858 0.880571 0.266443
0.675987 0.877772 0.281592
0.865676 0.876495 0.330894
0.994182 0.891154 0.451813
1.039321 0.928371 0.658846
1.038505 0.970893 0.848838
1.026989 0.999141 0.953957
0.832371 0.986791 0.668217
0.833191 0.986791 0.668217
0.838359 0.986573 0.669308
0.858888 0.985698 0.673110
0.906967 0.983288 0.685585
0.971785 0.980429 0.720365
1.014457 0.981530 0.790524
1.026989 0.990061 0.883612
1.024499 1.002571 0.959192
0.954185 1.010233 0.886890
0.954185 1.010233 0.886890
0.954870 1.010233 0.887142
0.957603 1.010233 0.887393
0.965066 1.009385 0.889150
0.981530 1.008537 0.894395
1.002999 1.007263 0.908187
1.017399 1.006412 0.935675
1.021166 1.008537 0.971785
0.996342 1.015298 0.972008
0.996342 1.015298 0.972008
0.996558 1.015298 0.972008
0.996774 1.015298 0.972231
0.997850 1.015298 0.972454
1.000000 1.014878 0.972899
1.005560 1.014457 0.974900
1.012770 1.014036 0.979988
1.017399 1.014036 0.989844
1.010233 1.016560 1.002571
1.010233 1.016560 1.002571
1.010233 1.016560 1.002571
1.010656 1.016560 1.002571
1.010656 1.016560 1.002571
1.011080 1.016560 1.002571
1.011925 1.016560 1.002571
1.013192 1.016560 1.003427
1.015719 1.016139 1.004707
-0.000000 0.000000 0.007972
0.007145 0.000000 0.008308
0.155164 0.000000 0.011447
0.466347 0.000000 0.020310
0.894395 0.054374 0.069204
1.081414 0.502180 0.230111
1.080252 0.826878 0.550148
1.047436 0.952813 0.828531
1.028645 0.996558 0.951438
-0.000000 0.008915 0.009109
0.009264 0.009289 0.009302
0.159531 0.005517 0.012662
0.470356 0.000000 0.021085
0.894644 0.082969 0.069869
1.079865 0.510616 0.231280
1.079477 0.827980 0.550848
1.047436 0.952813 0.828806
1.028645 0.996558 0.951438
-0.000000 0.176987 0.009832
0.000000 0.177882 0.010142
0.181837 0.182164 0.012442
0.502180 0.185384 0.020840
0.894893 0.268628 0.073810
1.069724 0.568005 0.240405
1.075980 0.837546 0.557562
1.047032 0.953957 0.830179
1.027817 0.996774 0.951668
0.000000 0.545449 0.000000
0.000000 0.545685 0.000000
0.177824 0.547334 0.000000
0.551548 0.553407 0.013592
0.886387 0.591820 0.109079
1.036461 0.721685 0.288273
1.063815 0.869561 0.584524
1.044605 0.958511 0.834828
1.027817 0.997204 0.952126
0.481444 0.881079 0.278248
0.488433 0.881079 0.278652
0.537099 0.880317 0.282122
0.675987 0.877261 0.296656
0.865676 0.875984 0.343753
0.993750 0.890903 0.460836
1.039321 0.928134 0.662909
1.038505 0.970669 0.849638
1.026989 0.999141 0.953957
0.832371 0.986573 0.671846
0.833191 0.986573 0.671846
0.838359 0.986354 0.672929
0.858888 0.985479 0.676704
0.906967 0.983068 0.688921
0.971785 0.980429 0.722837
1.014457 0.981310 0.791694
1.026989 0.990061 0.883864
1.024499 1.002571 0.959419
0.954185 1.010233 0.887393
0.954185 1.010233 0.887393
0.954870 1.010233 0.887645
0.957603 1.010233 0.887896
0.965066 1.009385 0.889652
0.981530 1.008537 0.894644
1.002999 1.007263 0.908431
1.017399 1.006412 0.935675
1.021166 1.008537 0.971785
0.996342 1.015298 0.972231
0.996342 1.015298 0.972231
0.996558 1.015298 0.972231
0.996774 1.015298 0.972231
0.997850 1.015298 0.972454
1.000000 1.014878 0.972899
1.005560 1.014457 0.974900
1.012770 1.014036 0.979988
1.017399 1.014036 0.989844
1.010233 1.016560 1.002571
1.010233 1.016560 1.002571
1.010233 1.016560 1.002571
1.010656 1.016560 1.002571
1.010656 1.016560 1.002571
1.011080 1.016560 1.002571
1.011925 1.016560 1.002571
1.013192 1.016560 1.003427
1.015719 1.016139 1.004707
-0.000000 0.000000 0.168382
0.001615 0.000000 0.168910
0.159469 0.000000 0.172685
0.480197 0.000000 0.181020
0.895390 0.062446 0.220767
1.079089 0.503620 0.338892
1.078313 0.824667 0.595847
1.047032 0.952126 0.836460
1.028645 0.996558 0.952355
-0.000000 0.000568 0.170489
0.003101 0.000711 0.171010
0.164562 0.000142 0.174339
0.481996 0.000000 0.182650
0.895141 0.091319 0.221817
1.077536 0.511899 0.339849
1.077924 0.825774 0.596690
1.047032 0.952355 0.836732
1.028645 0.996558 0.952355
-0.000000 0.178159 0.180037
0.000000 0.178214 0.179760
0.179431 0.180037 0.180145
0.497430 0.192115 0.192061
0.893150 0.274857 0.229776
1.067365 0.568677 0.347499
1.074420 0.835100 0.602135
1.046628 0.953271 0.837546
1.027817 0.996558 0.952584
0.000000 0.548039 0.206564
0.000000 0.548275 0.207034
0.183674 0.549914 0.209935
0.553407 0.555489 0.222340
0.882600 0.593519 0.264164
1.034002 0.720695 0.385216
1.062628 0.867232 0.624703
1.043795 0.958057 0.842141
1.027817 0.997204 0.952813
0.483925 0.878536 0.379044
0.491006 0.878536 0.379416
0.539022 0.877516 0.382007
0.676167 0.874961 0.392520
0.864376 0.873422 0.428609
0.992016 0.888147 0.521764
1.038097 0.926236 0.689970
1.038097 0.970223 0.855467
1.026989 0.998926 0.954641
0.831824 0.984822 0.697085
0.832645 0.984822 0.697257
0.838088 0.984603 0.698118
0.858100 0.983507 0.701205
0.906478 0.981310 0.711876
0.970893 0.978664 0.741116
1.014036 0.980429 0.802691
1.026574 0.989844 0.887896
1.024499 1.002571 0.960099
0.954185 1.009810 0.890903
0.954185 1.009810 0.890903
0.954870 1.009810 0.891154
0.957375 1.009810 0.891403
0.964841 1.009385 0.893150
0.981530 1.008113 0.897870
1.002999 1.006837 0.910864
1.016980 1.006412 0.937314
1.021166 1.008537 0.972008
0.996342 1.015298 0.972676
0.996342 1.015298 0.972676
0.996558 1.015298 0.972676
0.996774 1.015298 0.972676
0.997850 1.014878 0.972899
1.000000 1.014878 0.973344
1.005560 1.014457 0.975343
1.012770 1.014036 0.980208
1.017399 1.013614 0.990061
1.010233 1.016560 1.002571
1.010233 1.016560 1.002571
1.010233 1.016560 1.002571
1.010656 1.016560 1.002571
1.010656 1.016560 1.002571
1.011080 1.016560 1.002571
1.011925 1.016560 1.002999
1.013192 1.016560 1.003427
1.015719 1.016139 1.004707
0.000000 0.000000 0.525619
0.000000 0.000000 0.525868
0.157012 0.000000 0.527472
0.523385 0.000013 0.534076
0.911107 0.045462 0.554102
1.069331 0.506226 0.606488
1.072858 0.818547 0.723001
1.045820 0.949832 0.862813
1.027817 0.996126 0.956010
0.000000 0.000000 0.526609
0.000000 0.000000 0.526733
0.161020 0.000000 0.528458
0.525619 0.000013 0.534925
0.910135 0.080208 0.554565
1.068152 0.514323 0.606900
1.072075 0.819664 0.723494
1.045820 0.950062 0.862813
1.027817 0.996126 0.956010
0.000000 0.153357 0.532617
0.000000 0.154329 0.532739
0.177101 0.159968 0.534319
0.538302 0.169026 0.540219
0.900834 0.274173 0.558480
1.058260 0.569349 0.610186
1.068939 0.829081 0.725789
1.045011 0.951438 0.863334
1.027817 0.996342 0.956010
0.000000 0.550615 0.550615
0.000000 0.550848 0.550615
0.197060 0.552013 0.551781
0.556642 0.557102 0.557102
0.867751 0.595847 0.574243
1.024914 0.715388 0.625892
1.057463 0.860984 0.736000
1.042577 0.956237 0.866714
1.027403 0.996774 0.956465
0.495300 0.868009 0.621514
0.501917 0.868009 0.621714
0.547334 0.867232 0.622712
0.677420 0.864636 0.627277
0.859675 0.863334 0.643025
0.985261 0.879300 0.685233
1.034002 0.920751 0.768773
1.036461 0.968433 0.876751
1.026574 0.998711 0.958057
0.831002 0.978885 0.772102
0.831824 0.978885 0.772102
0.837003 0.978664 0.772706
0.856785 0.978001 0.774511
0.904275 0.976009 0.780492
0.968657 0.974233 0.798085
1.012348 0.977338 0.838359
1.026160 0.988755 0.901572
1.024499 1.002571 0.962812
0.953728 1.008537 0.903784
0.953957 1.008537 0.903784
0.954413 1.008537 0.903784
0.956920 1.008537 0.904275
0.964390 1.008113 0.905500
0.981090 1.007263 0.909405
1.002571 1.005986 0.920032
1.016980 1.005560 0.942440
1.020749 1.008537 0.973789
0.996342 1.014878 0.974233
0.996342 1.014878 0.974233
0.996342 1.014878 0.974233
0.996774 1.014878 0.974233
0.997850 1.014878 0.974455
1.000000 1.014878 0.975122
1.005560 1.014457 0.976895
1.012770 1.014036 0.981090
1.017399 1.013614 0.990496
1.010233 1.016560 1.002571
1.010233 1.016560 1.002571
1.010233 1.016560 1.002571
1.010656 1.016560 1.002571
1.010656 1.016560 1.002571
1.011080 1.016560 1.002999
1.011925 1.016560 1.002999
1.013192 1.016560 1.003427
1.015719 1.016139 1.005134
0.014651 0.066618 0.857838
0.053125 0.067679 0.857838
0.245058 0.074376 0.857838
0.572470 0.094883 0.857838
0.921947 0.228091 0.858100
1.055868 0.551781 0.859937
1.061439 0.817707 0.873166
1.042171 0.946608 0.914739
1.027403 0.995479 0.965965
0.015491 0.095193 0.857575
0.054132 0.095958 0.857575
0.246611 0.101187 0.857575
0.573357 0.118249 0.857838
0.920511 0.249535 0.858100
1.055068 0.558480 0.859675
1.061042 0.819106 0.873422
1.042171 0.946839 0.914981
1.027403 0.995479 0.965965
0.020905 0.273280 0.856785
0.060611 0.273969 0.856785
0.255785 0.277844 0.856785
0.577550 0.291864 0.856785
0.912077 0.371033 0.857049
1.045011 0.602967 0.858888
1.058658 0.827429 0.873679
1.041358 0.947991 0.915222
1.027403 0.995479 0.965965
0.118167 0.593095 0.852029
0.148332 0.593095 0.852029
0.306217 0.593943 0.852029
0.589900 0.597532 0.852029
0.879555 0.624703 0.853089
1.014457 0.723494 0.857311
1.048243 0.856785 0.875217
1.039729 0.952584 0.916669
1.026989 0.995911 0.966190
0.551781 0.857838 0.852029
0.556642 0.857838 0.852029
0.591820 0.857311 0.852294
0.696394 0.855467 0.853089
0.855731 0.855467 0.855204
0.972899 0.871880 0.862291
1.026989 0.914256 0.881586
1.034002 0.965066 0.920511
1.026160 0.997850 0.967313
0.834282 0.969776 0.881079
0.834828 0.969776 0.881079
0.839712 0.969552 0.881079
0.858100 0.968881 0.881586
0.902802 0.967537 0.883359
0.964841 0.966864 0.888900
1.008113 0.972008 0.903539
1.024499 0.985698 0.932622
1.024083 1.001287 0.970893
0.953271 1.005560 0.933327
0.953499 1.005560 0.933327
0.953957 1.005560 0.933563
0.956465 1.005560 0.933563
0.963715 1.005134 0.934268
0.979988 1.004281 0.936612
1.001287 1.003427 0.942673
1.016139 1.004281 0.956465
1.020331 1.008113 0.978885
0.996126 1.014457 0.979106
0.996126 1.014457 0.979106
0.996342 1.014457 0.979106
0.996558 1.014457 0.979106
0.997420 1.014457 0.979547
1.000000 1.014457 0.979988
1.005134 1.014036 0.981090
1.012348 1.013614 0.984822
1.017399 1.013614 0.992450
1.010233 1.016560 1.003427
1.010233 1.016560 1.003427
1.010233 1.016560 1.003427
1.010233 1.016560 1.003427
1.010656 1.016560 1.003427
1.011080 1.016560 1.003427
1.011925 1.016560 1.003427
1.013192 1.016139 1.004281
1.015719 1.016139 1.005560
0.463602 0.574906 0.976230
0.472062 0.574906 0.976230
0.529563 0.575790 0.976009
0.691540 0.581050 0.975343
0.897622 0.613248 0.973344
1.023251 0.707836 0.969552
1.049049 0.843755 0.965965
1.037279 0.946608 0.968881
1.026160 0.994182 0.983288
0.464904 0.580832 0.976009
0.473336 0.580832 0.976009
0.530543 0.581922 0.975787
0.691192 0.587112 0.975122
0.896879 0.618104 0.973121
1.022418 0.710533 0.969552
1.048646 0.844560 0.965965
1.037279 0.946839 0.968881
1.026160 0.994182 0.983288
0.475449 0.622114 0.974455
0.483513 0.622314 0.974233
0.537580 0.622712 0.974233
0.691714 0.626685 0.973566
0.891403 0.651186 0.972008
1.017399 0.729213 0.968657
1.046628 0.850701 0.965741
1.036461 0.947761 0.968881
1.026160 0.994399 0.983288
0.530909 0.735196 0.969552
0.536978 0.735196 0.969552
0.579304 0.734875 0.969552
0.701890 0.735357 0.969105
0.876240 0.745240 0.967985
1.001287 0.787885 0.966415
1.038913 0.871880 0.964841
1.034822 0.951897 0.968881
1.025745 0.994831 0.983507
0.685762 0.875217 0.963038
0.688220 0.875217 0.963038
0.705295 0.874448 0.963038
0.762672 0.873679 0.962812
0.870593 0.873679 0.962812
0.974900 0.883864 0.962587
1.021584 0.917150 0.963715
1.029884 0.963264 0.969552
1.024914 0.996342 0.984165
0.854676 0.964841 0.961909
0.854940 0.964841 0.961909
0.858888 0.964616 0.961909
0.873166 0.964165 0.961909
0.909405 0.963038 0.962135
0.963038 0.963038 0.962812
1.003427 0.968657 0.965066
1.021584 0.983068 0.971785
1.022834 1.000429 0.985479
0.954413 1.001715 0.971562
0.954413 1.001715 0.971562
0.955098 1.001715 0.971562
0.957375 1.001715 0.971562
0.964165 1.001287 0.971785
0.979106 1.000858 0.972454
1.000000 1.000429 0.974233
1.014457 1.002143 0.979106
1.019912 1.006837 0.989191
0.995911 1.013614 0.989408
0.995911 1.013614 0.989408
0.996126 1.013614 0.989408
0.996342 1.013614 0.989408
0.997204 1.013192 0.989408
0.999785 1.013192 0.989626
1.004707 1.012770 0.990496
1.011925 1.012770 0.992450
1.016980 1.012770 0.996989
1.010233 1.016560 1.004707
1.010233 1.016560 1.004707
1.010233 1.016560 1.004707
1.010233 1.016560 1.004707
1.010656 1.016560 1.004707
1.011080 1.016560 1.004707
1.011503 1.016139 1.005134
1.013192 1.016139 1.005560
1.015719 1.016139 1.006837
0.796638 0.850701 1.006837
0.797796 0.850701 1.006837
0.806978 0.850701 1.006837
0.838901 0.851233 1.006412
0.907211 0.854147 1.005560
0.985261 0.868268 1.004707
1.026989 0.905500 1.002571
1.031122 0.956693 1.000429
1.024499 0.994182 1.000858
0.796928 0.851498 1.006837
0.798085 0.851498 1.006837
0.806978 0.851498 1.006412
0.838901 0.851764 1.005986
0.907211 0.854676 1.005560
0.985042 0.868785 1.004707
1.026989 0.905500 1.002571
1.031122 0.956920 1.000429
1.024499 0.994182 1.000858
0.799239 0.857311 1.005986
0.800680 0.857311 1.005986
0.808969 0.857311 1.005986
0.839983 0.857575 1.005986
0.906723 0.860199 1.005560
0.983727 0.873166 1.004281
1.026160 0.908187 1.002143
1.030709 0.957603 1.000000
1.024083 0.994182 1.000858
0.808969 0.878281 1.004707
0.810103 0.878281 1.004707
0.817428 0.878281 1.004707
0.845096 0.878027 1.004707
0.905745 0.879555 1.004281
0.979547 0.889150 1.003427
1.022834 0.917391 1.001715
1.029471 0.960325 1.000000
1.024083 0.994615 1.000858
0.840252 0.921947 1.002143
0.840793 0.921947 1.002143
0.845632 0.921708 1.002143
0.864636 0.921230 1.002143
0.909405 0.921230 1.002143
0.971339 0.924809 1.001287
1.014457 0.939649 1.000429
1.025745 0.968433 0.999785
1.023251 0.996126 1.000858
0.900587 0.970446 0.999356
0.900834 0.970446 0.999356
0.903048 0.970223 0.999356
0.910621 0.969776 0.999356
0.931679 0.969329 0.999356
0.968209 0.969329 0.999141
1.003427 0.972676 0.999141
1.019075 0.984165 0.999356
1.021584 0.999785 1.001287
0.961683 1.000000 0.998926
0.961909 1.000000 0.998926
0.962135 1.000000 0.998926
0.963940 0.999785 0.998926
0.969105 0.999785 0.998926
0.981310 0.999356 0.998926
0.999356 0.999356 0.999141
1.012770 1.000858 0.999785
1.018657 1.005986 1.002143
0.996342 1.012348 1.002143
0.996342 1.012348 1.002143
0.996342 1.012348 1.002143
0.996558 1.012348 1.002143
0.997420 1.012348 1.002143
0.999785 1.011925 1.002143
1.004707 1.011925 1.002143
1.011503 1.011925 1.002999
1.016560 1.012348 1.004707
1.010233 1.016139 1.008113
1.010233 1.016139 1.008113
1.010233 1.016139 1.008113
1.010233 1.016139 1.008113
1.010233 1.016139 1.008113
1.010656 1.016139 1.008113
1.011503 1.016139 1.008113
1.013192 1.015719 1.008113
1.015719 1.015719 1.008962
0.938249 0.959192 1.014036
0.938483 0.959192 1.014036
0.939416 0.959192 1.014036
0.944064 0.959192 1.014036
0.956693 0.959192 1.014036
0.981090 0.960325 1.013614
1.008113 0.965965 1.013192
1.022000 0.979106 1.012348
1.022000 0.997204 1.011503
0.938249 0.959192 1.014036
0.938483 0.959192 1.014036
0.939416 0.959192 1.014036
0.944064 0.959192 1.014036
0.956693 0.959419 1.014036
0.981090 0.960325 1.013614
1.008113 0.965965 1.013192
1.022000 0.979106 1.012348
1.022000 0.997204 1.011503
0.938716 0.959873 1.014036
0.938949 0.959873 1.014036
0.939882 0.959873 1.014036
0.944296 0.959873 1.014036
0.956920 0.959873 1.014036
0.980869 0.961231 1.013614
1.007688 0.966415 1.013192
1.022000 0.979547 1.012348
1.022000 0.997420 1.011503
0.939882 0.962812 1.014036
0.940115 0.962812 1.014036
0.941046 0.962812 1.014036
0.945221 0.962812 1.014036
0.957375 0.962812 1.013614
0.980649 0.963715 1.013614
1.007263 0.968433 1.013192
1.021166 0.980649 1.012348
1.022000 0.997850 1.011503
0.944296 0.970893 1.013192
0.944527 0.970893 1.013192
0.945221 0.970893 1.013192
0.948912 0.970893 1.013192
0.959192 0.970669 1.013192
0.980208 0.971116 1.013192
1.005134 0.974233 1.012770
1.019912 0.984165 1.012348
1.021584 0.998926 1.011503
0.956465 0.985698 1.012348
0.956465 0.985698 1.012348
0.957148 0.985698 1.012348
0.959192 0.985698 1.012348
0.966190 0.985479 1.012348
0.981530 0.985479 1.012348
1.002143 0.986573 1.011925
1.016560 0.991582 1.011503
1.020331 1.001287 1.011503
0.978001 1.001287 1.011503
0.978001 1.001287 1.011503
0.978001 1.001287 1.011503
0.978885 1.001287 1.011503
0.981749 1.001287 1.011503
0.988973 1.001287 1.011080
1.000858 1.001287 1.011080
1.012770 1.002571 1.011080
1.017819 1.005986 1.011503
0.998926 1.011503 1.011080
0.998926 1.011503 1.011080
0.998926 1.011503 1.011080
0.999141 1.011503 1.011080
0.999785 1.011503 1.011080
1.001287 1.011503 1.011080
1.005134 1.011503 1.011080
1.011503 1.011080 1.011080
1.015719 1.011925 1.011503
1.010233 1.015719 1.012348
1.010233 1.015719 1.012348
1.010233 1.015719 1.012348
1.010233 1.015719 1.012348
1.010656 1.015719 1.012348
1.011080 1.015719 1.012348
1.011503 1.015719 1.012348
1.013192 1.015298 1.012348
1.015298 1.015298 1.012348
0.991365 0.998496 1.016139
0.991365 0.998496 1.016139
0.991365 0.998496 1.016139
0.992016 0.998496 1.016139
0.993750 0.998496 1.016139
0.997850 0.998496 1.016139
1.005134 0.998711 1.016139
1.014036 1.000429 1.015719
1.018657 1.004707 1.015719
0.991365 0.998496 1.016139
0.991365 0.998496 1.016139
0.991365 0.998496 1.016139
0.992016 0.998496 1.016139
0.993750 0.998496 1.016139
0.997850 0.998496 1.016139
1.005134 0.998711 1.016139
1.014036 1.000429 1.015719
1.018657 1.004707 1.015719
0.991365 0.998496 1.016139
0.991365 0.998496 1.016139
0.991582 0.998496 1.016139
0.992016 0.998496 1.016139
0.993750 0.998496 1.016139
0.997850 0.998496 1.016139
1.005134 0.998711 1.016139
1.014036 1.000429 1.015719
1.018657 1.004707 1.015719
0.991582 0.998711 1.016139
0.991582 0.998711 1.016139
0.991582 0.998711 1.016139
0.992016 0.998711 1.016139
0.993750 0.998711 1.016139
0.997850 0.998926 1.016139
1.005134 0.999141 1.016139
1.014036 1.000429 1.015719
1.018657 1.004707 1.015719
0.992016 0.999785 1.016139
0.992016 0.999785 1.016139
0.992016 0.999785 1.016139
0.992450 0.999785 1.016139
0.993966 0.999785 1.016139
0.997850 0.999785 1.016139
1.005134 1.000000 1.016139
1.014036 1.001287 1.015719
1.018657 1.005134 1.015719
0.993533 1.002143 1.016139
0.993533 1.002143 1.016139
0.993533 1.002143 1.016139
0.993966 1.002143 1.016139
0.995263 1.002143 1.015719
0.998496 1.002143 1.015719
1.005134 1.002571 1.015719
1.013192 1.003427 1.015719
1.018238 1.006412 1.015719
0.997420 1.006837 1.015719
0.997420 1.006837 1.015719
0.997420 1.006837 1.015719
0.997850 1.006837 1.015719
0.998496 1.006837 1.015719
1.000858 1.006837 1.015719
1.005134 1.006837 1.015719
1.012348 1.007263 1.015719
1.016980 1.008962 1.015298
1.004281 1.012348 1.014878
1.004281 1.012348 1.014878
1.004281 1.012348 1.014878
1.004281 1.012348 1.014878
1.004707 1.012348 1.014878
1.005560 1.011925 1.014878
1.008113 1.011925 1.014878
1.011925 1.011925 1.014878
1.015719 1.012348 1.014878
1.011503 1.015298 1.014878
1.011503 1.015298 1.014878
1.011503 1.015298 1.014878
1.011503 1.015298 1.014878
1.011503 1.015298 1.014878
1.011503 1.015298 1.014878
1.011925 1.015298 1.014878
1.013192 1.015298 1.014878
1.015298 1.014878 1.014878
